brandFactory_export/3.Masa/Futbol balon_3Masa.svg

<?xml version="1.0" encoding="UTF-8"?>
<svg width="24px" height="24px" viewBox="0 0 24 24" version="1.1" xmlns="http://www.w3.org/2000/svg" xmlns:xlink="http://www.w3.org/1999/xlink">
    <title>3.Masa/Futbol balon_3Masa</title>
    <g id="Symbols" stroke="none" stroke-width="1" fill="none" fill-rule="evenodd">
        <g id="3.Masa/Futbol-balon_3Masa" fill="#5CB615" fill-rule="nonzero">
            <path d="M20.5781513,16.8336134 L17.3008403,16.8336134 C17.0016807,16.8336134 16.7058824,16.8907563 16.4235294,16.9882353 L15.707563,15.8218487 C15.8420168,15.6168067 15.9596639,15.394958 16.0403361,15.1495798 L17.0420168,12.0705882 C17.1462185,11.7546218 17.1831933,11.4285714 17.1731092,11.1092437 L18.5815126,10.5176471 C18.7563025,10.7731092 18.9714286,10.9983193 19.2168067,11.1697479 L21.8352941,13.0756303 C21.912605,13.1327731 22.0033613,13.1663866 22.0840336,13.2168067 C21.9663866,14.6756303 21.6571429,15.892437 21.2168067,16.9142857 C21.005042,16.8672269 20.7932773,16.8336134 20.5781513,16.8336134 L20.5781513,16.8336134 Z M14.7193277,18.7260504 L13.7176471,21.805042 C13.6907563,21.892437 13.6840336,21.9865546 13.6638655,22.0773109 C13.2033613,22.1243697 12.7831933,22.1445378 12.4201681,22.1478992 L12.1983193,22.1478992 C11.9092437,22.1478992 11.610084,22.1445378 11.3512605,22.1378151 C10.9109244,22.1277311 10.3798319,22.087395 9.80168067,22.0067227 C9.78151261,21.9260504 9.77815126,21.8420168 9.7512605,21.7613445 L8.75294118,18.6857143 C8.65210084,18.3663866 8.48403361,18.0705882 8.27226891,17.8084034 L8.97142857,16.7529412 C9.33109244,16.9344538 9.72773109,17.0487395 10.1512605,17.0487395 L13.4319328,17.0487395 C13.8352941,17.0487395 14.2184874,16.9546218 14.5680672,16.7966387 L15.210084,17.8453782 C14.9915966,18.107563 14.8168067,18.4067227 14.7193277,18.7260504 L14.7193277,18.7260504 Z M7.07226891,16.9478992 C6.77647059,16.8403361 6.46386555,16.7798319 6.1512605,16.7831933 L2.89411765,16.7831933 C2.73613445,16.7831933 2.58151261,16.8 2.4302521,16.8268908 C1.97647059,15.794958 1.6605042,14.5714286 1.5394958,13.1058824 C1.60336134,13.0689076 1.67058824,13.0386555 1.73109244,12.9983193 L4.34285714,11.0991597 C4.58823529,10.9277311 4.8,10.7058824 4.97478992,10.4605042 L6.45042017,11.1428571 C6.44033613,11.4521008 6.48067227,11.7647059 6.58151261,12.0705882 L7.7512605,15.6739496 L7.81176471,15.6739496 C7.82857143,15.7008403 7.8487395,15.7210084 7.86554622,15.7478992 L7.07226891,16.9478992 L7.07226891,16.9478992 Z M7.16638655,2.25546218 C7.29411765,2.4 7.42184874,2.54453782 7.57983193,2.65882353 L10.1915966,4.55462185 C10.4537815,4.75294118 10.7529412,4.8907563 11.0722689,4.97815126 L11.0722689,6.69243697 C10.7529412,6.77647059 10.4537815,6.90756303 10.2016807,7.09915966 L7.58319328,9.00168067 C7.30420168,9.2 7.0789916,9.4487395 6.89747899,9.7210084 L5.46554622,9.05882353 C5.49243697,8.70588235 5.45546218,8.35294118 5.34453782,8.0302521 L4.34621849,4.9512605 C4.27226891,4.71932773 4.15798319,4.50420168 4.02689076,4.30252101 C4.96806723,3.32436975 6.06722689,2.6789916 7.16638655,2.25546218 Z M12.5512605,4.98151261 C12.8672269,4.89411765 13.1663866,4.75630252 13.4218487,4.56470588 L16.0403361,2.66218487 C16.205042,2.54453782 16.3361345,2.39327731 16.4672269,2.2487395 C17.5630252,2.66890756 18.6554622,3.31764706 19.5932773,4.29915966 C19.4352941,4.5210084 19.3042017,4.76638655 19.2201681,5.03193277 L18.2218487,8.10420168 C18.1109244,8.4302521 18.0739496,8.77647059 18.097479,9.12605042 L16.712605,9.70756303 C16.5344538,9.44201681 16.3159664,9.20336134 16.0436975,9.01176471 L13.4285714,7.11260504 C13.1697479,6.91764706 12.8672269,6.78655462 12.5512605,6.70252101 L12.5512605,4.98151261 L12.5512605,4.98151261 Z M12.3529412,0.00336134454 C12.2319328,0.00336134454 12.1109244,0 11.9865546,0 C11.7378151,0 11.4890756,0.00336134454 11.2705882,0.00672268908 C9.01848739,0.0470588235 0,0.894117647 0,11.7815126 C0,22.6420168 9.00168067,23.5563025 11.3176471,23.6134454 C11.5865546,23.6201681 11.8991597,23.6235294 12.1983193,23.6235294 L12.4369748,23.6235294 C14.8067227,23.6033613 23.6235294,22.789916 23.6235294,11.8521008 C23.6235294,0.894117647 14.7226891,0.0369747899 12.3529412,0.00336134454 Z" id="Futbol-balon_3Masa"></path>
        </g>
    </g>
</svg>

<svg width="24" height="24" viewBox="0 0 24 24" xmlns="http://www.w3.org/2000/svg"><path d="M20.578 16.834h-3.277c-.3 0-.595.057-.877.154l-.716-1.166a2.85 2.85 0 00.332-.672l1.002-3.08c.104-.315.141-.641.131-.96l1.409-.592c.174.255.39.48.635.652l2.618 1.906c.078.057.168.09.249.14-.118 1.46-.427 2.676-.867 3.698a2.94 2.94 0 00-.639-.08zm-5.859 1.892l-1.001 3.079c-.027.087-.034.182-.054.272-.46.047-.88.068-1.244.07h-.222c-.289 0-.588-.002-.847-.01-.44-.01-.971-.05-1.55-.13-.02-.08-.023-.165-.05-.246l-.998-3.075c-.1-.32-.269-.615-.48-.878l.698-1.055c.36.181.757.296 1.18.296h3.28c.404 0 .787-.094 1.137-.252l.642 1.048a2.562 2.562 0 00-.49.881zm-7.647-1.778a2.623 2.623 0 00-.92-.165H2.893c-.158 0-.312.017-.464.044-.454-1.032-.77-2.256-.89-3.721.063-.037.13-.067.191-.108L4.343 11.1c.245-.171.457-.393.632-.638l1.475.682c-.01.31.03.622.132.928l1.17 3.603h.06c.017.027.037.047.054.074l-.794 1.2zm.094-14.693c.128.145.256.29.414.404l2.612 1.896c.262.198.56.336.88.423v1.714c-.32.084-.618.216-.87.407L7.583 9.002a2.73 2.73 0 00-.686.719l-1.431-.662a2.573 2.573 0 00-.121-1.029l-.999-3.079a2.709 2.709 0 00-.32-.648c.942-.979 2.041-1.624 3.14-2.048zm5.385 2.727c.316-.088.615-.226.87-.417l2.62-1.903c.164-.117.295-.269.426-.413 1.096.42 2.188 1.069 3.126 2.05-.158.222-.289.467-.373.733l-.998 3.072c-.111.326-.148.672-.125 1.022l-1.384.582a2.63 2.63 0 00-.67-.696l-2.614-1.9a2.53 2.53 0 00-.878-.41v-1.72zM12.353.003c-.121 0-.242-.003-.366-.003-.25 0-.498.003-.716.007C9.018.047 0 .894 0 11.782c0 10.86 9.002 11.774 11.318 11.831.269.007.581.01.88.01h.239c2.37-.02 11.187-.833 11.187-11.77C23.624.893 14.723.036 12.353.002z" fill="#5CB615" fill-rule="nonzero"/></svg>
